X: 134
T:Nobody Knows the Trouble I see, Lord!
S:The Story of the Jubilee Singers (1899)
N:not the well-known tune for this
M:2/4
L:1/16
K:CMin
c2c2 e2e2|c3B  G4  |B2B2  d2d2|c3B   G4 |
c2c2 e2e2|c3B  G2E2|G2G>F E2E2|FE2E  C4||
CE2F G3G |BGc2 BG3 |CE2F  G3E |FG2E  C4 |
CE2F G3G |BGc2 BG3 |CE2F  G2D2|C4    C4|]

and from Turkey, a lament for the young men of a village killed on the
Yemen front in WW1.  This is classified in the "huseyni" (dorian) mode
in Turkish books, since they don't usually acknowledge gapped scales.

